Dominus_Dark_Funeral/22/apps/resharpercpp.svg

<svg xmlns="http://www.w3.org/2000/svg" width="24" height="24" version="1"><defs><linearGradient id="a"><stop offset="0" stop-color="#040000"/><stop offset="1" stop-opacity="0"/></linearGradient></defs><path d="M1 1v22h22V1H1zm18.4 2.44v2.34h2.23v2.07H19.4v2.23h-2.32V7.85H14.8V5.79h2.27V3.46l2.32-.02zm-15.45.3h2.64l2.26 2.23v1.98l-1.4 1.39 1.46 1.49v3.06l.8.81-1.79 1.8-1.78-1.8.79-.8v-2.1L5.2 10.06v3.83l.78.81-1.78 1.8-1.76-1.8.78-.8V6.13l-.86-.83 1.58-1.58zM5.1 5.15v3.9l1.98-1.94L5.1 5.16zm7.07 4.77h2.32v2.35h2.23v2.04H14.5v2.24h-2.31v-2.24H9.9v-2.04h2.27V9.93zM7.1 17.46h9.78v1.9H7.11v-1.9z" fill="#e6e6e6"/></svg>

<?xml version="1.0" encoding="UTF-8" standalone="no"?>
<svg
   xmlns:dc="http://purl.org/dc/elements/1.1/"
   xmlns:cc="http://creativecommons.org/ns#"
   xmlns:rdf="http://www.w3.org/1999/02/22-rdf-syntax-ns#"
   xmlns:svg="http://www.w3.org/2000/svg"
   xmlns="http://www.w3.org/2000/svg"
   xmlns:sodipodi="http://sodipodi.sourceforge.net/DTD/sodipodi-0.dtd"
   xmlns:inkscape="http://www.inkscape.org/namespaces/inkscape"
   width="24"
   height="24"
   version="1"
   id="svg11"
   sodipodi:docname="resharpercpp.svg"
   inkscape:version="0.92.4 (5da689c313, 2019-01-14)">
  <metadata
     id="metadata15">
    <rdf:RDF>
      <cc:Work
         rdf:about="">
        <dc:format>image/svg+xml</dc:format>
        <dc:type
           rdf:resource="http://purl.org/dc/dcmitype/StillImage" />
        <dc:title></dc:title>
      </cc:Work>
    </rdf:RDF>
  </metadata>
  <sodipodi:namedview
     pagecolor="#ffffff"
     bordercolor="#666666"
     borderopacity="1"
     objecttolerance="10"
     gridtolerance="10"
     guidetolerance="10"
     inkscape:pageopacity="0"
     inkscape:pageshadow="2"
     inkscape:window-width="1138"
     inkscape:window-height="480"
     id="namedview13"
     showgrid="false"
     inkscape:zoom="9.8333333"
     inkscape:cx="1.0677966"
     inkscape:cy="12"
     inkscape:window-x="0"
     inkscape:window-y="25"
     inkscape:window-maximized="0"
     inkscape:current-layer="svg11" />
  <defs
     id="defs7">
    <linearGradient
       id="a">
      <stop
         offset="0"
         stop-color="#040000"
         id="stop2" />
      <stop
         offset="1"
         stop-opacity="0"
         id="stop4" />
    </linearGradient>
  </defs>
  <path
     d="M 1,1 V 23 H 23 V 1 Z m 18.4,2.44 v 2.34 h 2.23 V 7.85 H 19.4 v 2.23 H 17.08 V 7.85 H 14.8 V 5.79 h 2.27 V 3.46 L 19.39,3.44 Z M 3.95,3.74 h 2.64 l 2.26,2.23 v 1.98 l -1.4,1.39 1.46,1.49 v 3.06 L 9.71,14.7 7.92,16.5 6.14,14.7 6.93,13.9 V 11.8 L 5.2,10.06 v 3.83 L 5.98,14.7 4.2,16.5 2.44,14.7 3.22,13.9 V 6.13 L 2.36,5.3 3.94,3.72 Z M 5.1,5.15 v 3.9 L 7.08,7.11 5.1,5.16 Z m 7.07,4.77 h 2.32 v 2.35 h 2.23 v 2.04 H 14.5 v 2.24 H 12.19 V 14.31 H 9.9 v -2.04 h 2.27 V 9.93 Z M 7.1,17.46 h 9.78 v 1.9 H 7.11 v -1.9 z"
     id="path9"
     inkscape:connector-curvature="0"
     style="fill:#e6e6e6" />
</svg>
